X:1
T:Cicero, 87.87 D
T:Cicero, 87.87 D
T:Cornelius S. Meily, 1878
T:Public Domain Courtesy of the Cyber Hymnal™
C:Cornelius S. Meily, 1878
Z:Public Domain
Z:Courtesy of the Cyber Hymnal™
%%score ( 1 2 ) ( 3 4 )
L:1/8
Q:1/4=110
M:4/4
K:G
V:1 treble 
V:2 treble 
V:3 bass 
V:4 bass 
V:1
 G>A | [GB]2 [Gd]2 [DG]2 [DG]2 | [DF]2 [CE]4 [Ge]>[Ge] | [Gd]2 [GB]2 [DA]2 [DG]2 | %4
 [FA]6 [DG]>[FA] | [GB]2 [Gd]2 [GB]2 [DG]2 | [DF]2 [CE]4 [Ge]>[Ge] | [Fd]2 [Ec]2 [CE]2 [CF]2 | %8
 [B,G]6 [DG]>[DF] | [CE]2 [Ec]2 [DB]3 [CA] | [CA]2 [B,G]2 z2 G>[FA] | [GB]2 [Ge]2 [Gd]3 [GB] | %12
 [FA]6 [DG]>[FA] | [GB]2 [Gd]2 [GB]2 [DG]2 | [DF]2 [CE]4 [Ge]>[Ge] | [Fd]2 [Ec]2 [CE]2 [CF]2 | %16
 [B,G]6 |] %17
V:2
 G2 | x8 | x8 | x8 | x8 | x8 | x8 | x8 | x8 | x8 | x6 G3/2 x/ | x8 | x8 | x8 | x8 | x8 | x6 |] %17
V:3
 B,>C | [G,D]2 [G,B,]2 [G,D]2 [B,,G,]2 | [C,G,]2 [C,G,]4 [C,C]>[C,C] | %3
 [G,B,]2 [G,D]2 [G,C]2 [G,B,]2 | [D,D]6 [G,B,]>[G,C] | [G,D]2 [G,B,]2 [G,D]2 [B,,G,]2 | %6
 [C,G,]2 [C,G,]4 [C,C]>[C,C] | [D,A,]2 [D,A,]2 [D,F,]2 [D,A,]2 | [G,,G,]6 [B,,G,]>[B,,G,] | %9
 [C,G,]2 [C,G,]2 [D,G,]3 [D,F,] | [G,,G,]2 [G,,G,]2 z2 [G,B,]>[G,C] | [G,D]2 [G,C]2 [G,B,]3 [G,D] | %12
 [D,D]6 [G,B,]>[G,C] | [G,D]2 [G,B,]2 [G,D]2 [B,,G,]2 | [C,G,]2 [C,G,]4 [C,C]>[C,C] | %15
 [D,A,]2 [D,A,]2 [D,F,]2 [D,A,]2 | [G,,G,]6 |] %17
V:4
 G,2 | x8 | x8 | x8 | x8 | x8 | x8 | x8 | x8 | x8 | x8 | x8 | x8 | x8 | x8 | x8 | x6 |] %17

